static/fa/svgs/solid/skull.svg

<svg xmlns="http://www.w3.org/2000/svg" viewBox="0 0 512 512"><!--! Font Awesome Free 6.1.1 by @fontawesome - https://fontawesome.com License - https://fontawesome.com/license/free (Icons: CC BY 4.0, Fonts: SIL OFL 1.1, Code: MIT License) Copyright 2022 Fonticons, Inc.--><path d="M416 400v64c0 26.5-21.5 48-48 48h-48v-48c0-8.8-7.2-16-16-16s-16 7.2-16 16v48h-64v-48c0-8.8-7.2-16-16-16s-16 7.2-16 16v48h-48c-26.5 0-48-21.5-48-48v-64c0-.4 0-.7.01-1.1C37.48 357.8 0 294.7 0 224 0 100.3 114.6 0 256 0s256 100.3 256 224c0 70.7-37.5 133.8-96.9 174.9 0 .4.9.7.9 1.1zM160 192c-35.3 0-64 28.7-64 64s28.7 64 64 64 64-28.7 64-64-28.7-64-64-64zm192 128c35.3 0 64-28.7 64-64s-28.7-64-64-64-64 28.7-64 64 28.7 64 64 64z"/></svg>

<svg xmlns="http://www.w3.org/2000/svg" viewBox="0 0 512 512"><!--! Font Awesome Free 6.1.1 by @fontawesome - https://fontawesome.com License - https://fontawesome.com/license/free (Icons: CC BY 4.0, Fonts: SIL OFL 1.1, Code: MIT License) Copyright 2022 Fonticons, Inc. --><path d="M416 400V464C416 490.5 394.5 512 368 512H320V464C320 455.2 312.8 448 304 448C295.2 448 288 455.2 288 464V512H224V464C224 455.2 216.8 448 208 448C199.2 448 192 455.2 192 464V512H144C117.5 512 96 490.5 96 464V400C96 399.6 96 399.3 96.01 398.9C37.48 357.8 0 294.7 0 224C0 100.3 114.6 0 256 0C397.4 0 512 100.3 512 224C512 294.7 474.5 357.8 415.1 398.9C415.1 399.3 416 399.6 416 400V400zM160 192C124.7 192 96 220.7 96 256C96 291.3 124.7 320 160 320C195.3 320 224 291.3 224 256C224 220.7 195.3 192 160 192zM352 320C387.3 320 416 291.3 416 256C416 220.7 387.3 192 352 192C316.7 192 288 220.7 288 256C288 291.3 316.7 320 352 320z"/></svg>
